svg/fluentui-system-icons/ic_fluent_vehicle_car_collision_48_regular.svg

<svg width="48" height="48" viewBox="0 0 48 48" fill="none" xmlns="http://www.w3.org/2000/svg">
<path d="M23.8792 2.05635C24.4021 1.89394 24.9699 2.09074 25.2801 2.54193L30.0591 9.49321L36.0235 5.23293C36.4611 4.92035 37.0495 4.9227 37.4846 5.23874C37.9197 5.55479 38.1039 6.1137 37.942 6.62651L35.4556 14.5001H41.75C42.2367 14.5001 42.6792 14.7826 42.884 15.2242C43.0888 15.6657 43.0186 16.186 42.7042 16.5575L38.0698 22.0345L44.4892 26.7421C44.9251 27.0617 45.1061 27.6253 44.938 28.139C44.7698 28.6527 44.2905 29.0001 43.75 29.0001H36.25C35.5596 29.0001 35 28.4404 35 27.7501C35 27.0597 35.5596 26.5001 36.25 26.5001H39.9317L35.5108 23.2581C35.2313 23.0531 35.0494 22.7413 35.0087 22.3971C34.9679 22.0529 35.0719 21.7073 35.2958 21.4427L39.0549 17.0001H33.75C33.3517 17.0001 32.9772 16.8103 32.7418 16.489C32.5063 16.1677 32.4381 15.7535 32.558 15.3737L34.431 9.44267L30.4765 12.2673C30.2036 12.4622 29.8638 12.5393 29.5334 12.4812C29.2031 12.4231 28.91 12.2346 28.7199 11.9583L25.5 7.27469V13.7501C25.5 14.4404 24.9404 15.0001 24.25 15.0001C23.5596 15.0001 23 14.4404 23 13.7501V3.25009C23 2.70256 23.3563 2.21875 23.8792 2.05635ZM11 35.0001C12.1046 35.0001 13 34.1047 13 33.0001C13 31.8955 12.1046 31.0001 11 31.0001C9.89543 31.0001 9 31.8955 9 33.0001C9 34.1047 9.89543 35.0001 11 35.0001ZM28 33.0001C28 34.1047 27.1046 35.0001 26 35.0001C24.8954 35.0001 24 34.1047 24 33.0001C24 31.8955 24.8954 31.0001 26 31.0001C27.1046 31.0001 28 31.8955 28 33.0001ZM16.25 34.0001C15.5596 34.0001 15 34.5597 15 35.2501C15 35.9404 15.5596 36.5001 16.25 36.5001H20.75C21.4404 36.5001 22 35.9404 22 35.2501C22 34.5597 21.4404 34.0001 20.75 34.0001H16.25ZM6.38166 27.2576L6.54544 26.5001H5.25C4.55964 26.5001 4 25.9404 4 25.2501C4 24.5597 4.55964 24.0001 5.25 24.0001H7.08598L7.59614 21.6406C8.11854 19.2245 10.2556 17.5001 12.7276 17.5001H24.2724C26.7444 17.5001 28.8815 19.2245 29.4039 21.6406L29.9233 24.0432C30.0275 24.0151 30.137 24.0001 30.25 24.0001H31.75C32.4404 24.0001 33 24.5597 33 25.2501C33 25.9404 32.4404 26.5001 31.75 26.5001H30.4546L30.6183 27.2576C32.0127 27.8043 33 29.1619 33 30.7501V39.7501C33 39.7923 32.9979 39.834 32.9938 39.8751C32.9979 39.9162 33 39.9579 33 40.0001V42.2501C33 44.045 31.5449 45.5001 29.75 45.5001H27.25C25.4551 45.5001 24 44.045 24 42.2501V41.0001H13V42.2501C13 44.045 11.5449 45.5001 9.75 45.5001H7.25C5.45507 45.5001 4 44.045 4 42.2501V40.0001C4 39.9579 4.00209 39.9162 4.00617 39.8751C4.00209 39.834 4 39.7923 4 39.7501V30.7501C4 29.1619 4.98732 27.8043 6.38166 27.2576ZM10.0397 22.1689L8.9951 27.0001H28.0049L26.9603 22.1689C26.6867 20.9033 25.5673 20.0001 24.2724 20.0001H12.7276C11.4327 20.0001 10.3133 20.9033 10.0397 22.1689ZM26.5 42.2501C26.5 42.6643 26.8358 43.0001 27.25 43.0001H29.75C30.1642 43.0001 30.5 42.6643 30.5 42.2501V41.0001H26.5V42.2501ZM10.5 41.0001H6.5V42.2501C6.5 42.6643 6.83579 43.0001 7.25 43.0001H9.75C10.1642 43.0001 10.5 42.6643 10.5 42.2501V41.0001ZM6.5 30.7501V38.5001H30.5V30.7501C30.5 30.0597 29.9404 29.5001 29.25 29.5001H7.75C7.05964 29.5001 6.5 30.0597 6.5 30.7501Z" fill="#212121"/>
</svg>

<svg xmlns="http://www.w3.org/2000/svg" width="48" height="48"><path d="M23.88 2.056a1.25 1.25 0 0 1 1.4.486l4.78 6.951 5.963-4.26a1.25 1.25 0 0 1 1.919 1.394L35.456 14.5h6.294a1.25 1.25 0 0 1 .954 2.058l-4.634 5.477 6.42 4.707A1.25 1.25 0 0 1 43.75 29h-7.5a1.25 1.25 0 0 1 0-2.5h3.682l-4.421-3.242a1.25 1.25 0 0 1-.215-1.815L39.055 17H33.75a1.25 1.25 0 0 1-1.192-1.626l1.873-5.931-3.954 2.824a1.25 1.25 0 0 1-1.757-.309L25.5 7.275v6.475a1.25 1.25 0 0 1-2.5 0V3.25c0-.547.356-1.031.88-1.194ZM11 35a2 2 0 1 0 0-4 2 2 0 0 0 0 4Zm17-2a2 2 0 1 1-4 0 2 2 0 0 1 4 0Zm-11.75 1a1.25 1.25 0 1 0 0 2.5h4.5a1.25 1.25 0 0 0 0-2.5h-4.5Zm-9.868-6.742.163-.758H5.25a1.25 1.25 0 0 1 0-2.5h1.836l.51-2.36a5.25 5.25 0 0 1 5.132-4.14h11.544a5.25 5.25 0 0 1 5.132 4.14l.52 2.403A1.25 1.25 0 0 1 30.25 24h1.5a1.25 1.25 0 1 1 0 2.5h-1.295l.163.758A3.751 3.751 0 0 1 33 30.75v9c0 .042-.002.084-.006.125.004.041.006.083.006.125v2.25a3.25 3.25 0 0 1-3.25 3.25h-2.5A3.25 3.25 0 0 1 24 42.25V41H13v1.25a3.25 3.25 0 0 1-3.25 3.25h-2.5A3.25 3.25 0 0 1 4 42.25V40c0-.042.002-.084.006-.125A1.265 1.265 0 0 1 4 39.75v-9a3.75 3.75 0 0 1 2.382-3.492Zm3.658-5.09L8.995 27h19.01l-1.045-4.83A2.75 2.75 0 0 0 24.272 20H12.728a2.75 2.75 0 0 0-2.688 2.169ZM26.5 42.25c0 .414.336.75.75.75h2.5a.75.75 0 0 0 .75-.75V41h-4v1.25ZM10.5 41h-4v1.25c0 .414.336.75.75.75h2.5a.75.75 0 0 0 .75-.75V41Zm-4-10.25v7.75h24v-7.75c0-.69-.56-1.25-1.25-1.25H7.75c-.69 0-1.25.56-1.25 1.25Z"/></svg>
